svg/line/shield-plus.svg

<svg xmlns="http://www.w3.org/2000/svg" data-name="Layer 1" viewBox="0 0 24 24"><path d="M14,11H13V10a1,1,0,0,0-2,0v1H10a1,1,0,0,0,0,2h1v1a1,1,0,0,0,2,0V13h1a1,1,0,0,0,0-2Zm5.63086-7.3501a1.00709,1.00709,0,0,0-.83594-.20263,7.9808,7.9808,0,0,1-6.22265-1.26709.99888.99888,0,0,0-1.14454,0A7.976,7.976,0,0,1,5.20508,3.44727.99971.99971,0,0,0,4,4.42627v7.457A9.01875,9.01875,0,0,0,7.76855,19.207L11.419,21.814a1.0004,1.0004,0,0,0,1.1621,0l3.6504-2.60742A9.01717,9.01717,0,0,0,20,11.8833v-7.457A1.0011,1.0011,0,0,0,19.63086,3.6499ZM18,11.8833a7.0157,7.0157,0,0,1-2.93066,5.6958L12,19.771,8.93066,17.57959A7.01728,7.01728,0,0,1,6,11.8833V5.583a9.95463,9.95463,0,0,0,6-1.39112A9.95463,9.95463,0,0,0,18,5.583Z"/></svg>

<svg xmlns="http://www.w3.org/2000/svg" data-name="Layer 1" viewBox="0 0 24 24"><path d="M14 11h-1v-1a1 1 0 0 0-2 0v1h-1a1 1 0 0 0 0 2h1v1a1 1 0 0 0 2 0v-1h1a1 1 0 0 0 0-2Zm5.63-7.35a1.007 1.007 0 0 0-.835-.203 7.98 7.98 0 0 1-6.223-1.267.999.999 0 0 0-1.144 0 7.976 7.976 0 0 1-6.223 1.267A1 1 0 0 0 4 4.427v7.456a9.019 9.019 0 0 0 3.769 7.324l3.65 2.607a1 1 0 0 0 1.162 0l3.65-2.607A9.017 9.017 0 0 0 20 11.883V4.426a1.001 1.001 0 0 0-.37-.776ZM18 11.883a7.016 7.016 0 0 1-2.93 5.696L12 19.771 8.93 17.58A7.017 7.017 0 0 1 6 11.883v-6.3a9.955 9.955 0 0 0 6-1.391 9.955 9.955 0 0 0 6 1.391Z"/></svg>
